X:1
T:Qui sapiens est
T:Qui patiens est
T:Nicolaï Listenius
T:Source : Musica---Nürnberg---J.Petreius---1541. Editor : André Vierendeels (12/08/15).
T:Notes :  Original clef : F3, Tenor ex Basso in diapente post unus tempus Editorial accidentals above the staff Note values have been halved Original does not contain text.  Lyrics supplied editorially from the Book of Proverbs (Prov. 14, 29) m 6 in B, original notation : fa, re, mi, do in quarters 
T:(Fuga)
C:Nicolaï Listenius
%%score [ 1 2 ]
L:1/8
Q:1/4=120
M:4/4
K:C
V:1 treble-8 nm="Tenor" snm="T"
V:2 bass nm="Bass" snm="B"
V:1
 z8 | G4 A4 | B4 c4 | d4 e3 d | cB A2 G4 | z2 A2 B2 G2 | c2 A2 d2 B2 | e2 c2 d4 | G4 z2 d2 | %9
w: |Qui pa-|* ti-|ens est, _|_ _ _ _|qui pa- *|ti- * ens _|est _ mul-|ta gu-|
 d2 d2 A4 | A2 c6 | c2 B2 G4 | z2 d2 d2 d2 | c2 A2 c4- | c2 c2 G4 | z2 G4 d2 | G2 d2 G2 F2 | %17
w: ber- na- tur|pru- den-|ti- * a,|qui au- tem|im- pa- ti-|* ens est,|ex al-|* tat stul- *|
 G2 A2 F2 E2 | D2 A4 G2 | A2 c4 B2 | c2 B2 A4 | G2 d4 c2 | d8 |] %23
w: ti- * ti- am|su- * *|am, ex- al-|tat stul- ti-|ti- am su-|am.|
V:2
 C,4 D,4 | E,4 F,4 | G,4 A,3 G, | F,E, D,2 C,4 | z2 D,2 E,2 C,2 | F,4 E,4 | A,2 F,2 G,4 | %7
w: Qui pa-|* ti-|ens est, _|_ _ _ _|qui pa- *|ti- ens|est _ mul-|
 C,4 z2 G,2 | G,2 G,2 D,4 | D,2 F,6 | F,2 E,2 C,4 | z2 G,2 G,2 G,2 | F,2 D,2 F,4- | F,2 F,2 C,4 | %14
w: ta gu-|ber- na- tur|pru- den-|ti- * a,|qui au- tem|im- pa- ti-|* ens est,|
 z2 C,4 G,2 | C,2 G,2 C,2 B,,2 | C,2 D,2 B,,2 A,,2 | G,,2 D,4 C,2 | D,2 F,4 E,2 | F,2 E,2 D,4 | %20
w: ex- al-|* tat stul- *|ti- * ti- am|su- * *|am, ex- al-|tat stul- ti-|
"^#" C,2 G,4 F,2 | G,8- | G,8 |] %23
w: ti- am su-|am.|_|

